Resources/Public/Images/Icons/Ionicons/ios-film.svg

<svg xmlns="http://www.w3.org/2000/svg" width="32" height="32" viewBox="0 0 512 512"><path d="M56 88v336h400V88H56zm72 320H72v-48h56v48zm0-64H72v-48h56v48zm0-64H72v-48h56v48zm0-64H72v-48h56v48zm0-64H72v-48h56v48zm240 112H144v-16h224v16zm72 144h-56v-48h56v48zm0-64h-56v-48h56v48zm0-64h-56v-48h56v48zm0-64h-56v-48h56v48zm0-64h-56v-48h56v48z"/></svg>

<?xml version="1.0" encoding="utf-8"?>
<!-- Generator: Adobe Illustrator 16.2.1, SVG Export Plug-In . SVG Version: 6.00 Build 0)  -->
<!DOCTYPE svg PUBLIC "-//W3C//DTD SVG 1.1//EN" "http://www.w3.org/Graphics/SVG/1.1/DTD/svg11.dtd">
<svg version="1.1" id="Layer_1" xmlns="http://www.w3.org/2000/svg" xmlns:xlink="http://www.w3.org/1999/xlink" x="0px" y="0px"
	 width="32px" height="32px" viewBox="0 0 512 512" enable-background="new 0 0 512 512" xml:space="preserve">
<g>
	<path d="M56,88v336h400V88H56z M128,408H72v-48h56V408z M128,344H72v-48h56V344z M128,280H72v-48h56V280z M128,216H72v-48h56V216z
		 M128,152H72v-48h56V152z M368,264H144v-16h224V264z M440,408h-56v-48h56V408z M440,344h-56v-48h56V344z M440,280h-56v-48h56V280z
		 M440,216h-56v-48h56V216z M440,152h-56v-48h56V152z"/>
</g>
</svg>
